public/logos/ambev.svg

<svg width="521" height="200" viewBox="0 0 521 200" fill="none" xmlns="http://www.w3.org/2000/svg">
<path fill-rule="evenodd" clip-rule="evenodd" d="M38.0475 131.066C65.3183 117.877 73.4995 162.009 55.459 173.422C39.2012 183.668 22.2624 165.458 28.7653 142.327C30.8108 135.073 33.4846 133.298 38.0475 131.117V131.066ZM63.4566 113.337C52.2337 101.62 31.5449 102 17.8571 111.943C-5.63776 129.088 -6.47693 175.148 18.4876 192.902C35.8467 205.228 49.9778 199.433 65.3961 191.115L65.5443 198.533L91.0844 198.275L90.8775 106.208L65.547 106.409C64.8662 107.829 65.1796 112.953 64.8125 113.815C62.6102 118.381 66.0527 114.909 63.4566 113.337Z" fill="white"/>
<path fill-rule="evenodd" clip-rule="evenodd" d="M129.409 198.329C131.297 182.401 120.965 121.885 146.086 128.58C165.752 133.856 145.195 181.691 161.819 198.532L188.46 198.024C179.597 181.234 181.8 183.16 181.747 161.602C181.747 149.022 179.335 128.377 195.121 128.377C220.242 128.377 194.65 181.842 215.469 198.48L242.268 198.222C224.962 180.468 239.488 150.337 231.831 124.416C228.948 114.677 220.294 106.003 207.655 104.785C190.244 103.11 186.1 108.691 176.608 116.3C170.42 111.735 167.535 105.496 154.267 104.735C142.152 104.023 133.902 107.755 128.29 113.944L128.083 107.641C127.965 106.982 127.778 106.718 127.465 106.262L102.873 106.612L103.504 198.577L129.41 198.377L129.409 198.329Z" fill="white"/>
<path fill-rule="evenodd" clip-rule="evenodd" d="M284.273 131.317C311.858 116.758 319.147 164.999 300.425 174.13C286.527 180.876 277.035 170.172 274.256 160.484C271.423 150.694 273.155 137.201 284.273 131.317ZM273.343 192.326C285.657 201.829 309.341 202.181 321.613 191.072C347.258 167.739 342.276 125.991 318.361 110.469C300.111 98.6497 287.157 106.208 274.256 113.716L274.048 73.5408L247.197 73.9968L247.878 198.579L272.67 198.723C273.353 192.29 272.679 198.78 272.671 198.808L273.343 192.326Z" fill="white"/>
<path fill-rule="evenodd" clip-rule="evenodd" d="M372.378 142.732C376.521 120.514 401.065 120.921 404.212 142.79L372.378 142.732ZM426.71 168.856C409.142 174.994 379.248 186.864 372.326 161.958L431.011 160.893C432.165 134.668 424.035 114.632 404.893 107.124C354.39 87.3414 323.343 158.814 360.788 189.198C376.521 201.981 406.939 204.417 423.406 190.923C426.029 185.698 426.553 176.566 426.658 168.856H426.71Z" fill="white"/>
<path fill-rule="evenodd" clip-rule="evenodd" d="M520.218 106.311L491.898 106.818L473.701 166.522L456.079 106.26L428.074 106.318C428.965 114.18 455.66 191.739 459.645 198.486L489.119 198.629L520.271 106.36L520.218 106.311Z" fill="white"/>
<path d="M404.232 22.4956C404.21 22.4954 404.198 22.4973 404.193 22.5024C403.512 23.2082 387 47.8776 387.13 47.9961C387.222 48.0806 388.575 48.5419 390.135 49.0211C391.696 49.5002 393.126 49.9394 393.314 49.9971C393.566 50.0748 394.052 49.4696 395.178 47.6762C396.016 46.3419 396.77 45.2077 396.854 45.156C396.994 45.0699 405.405 47.6276 405.57 47.8062C405.611 47.849 405.554 49.2022 405.459 50.8135C405.359 52.4249 405.298 53.7612 405.325 53.7831C405.352 53.8049 406.886 54.3027 408.736 54.8888C410.585 55.475 412.207 55.9595 412.339 55.9654C412.638 55.9788 412.733 53.905 413.176 37.7236C413.363 30.8817 413.431 25.3853 413.33 25.2889C413.015 24.9878 404.883 22.5021 404.232 22.4956ZM406.681 29.7851C406.729 29.8337 406.607 32.507 406.408 35.7261C406.209 38.9451 405.99 41.6387 405.92 41.7118C405.754 41.8872 400.229 40.1597 400.226 39.9311C400.226 39.6702 406.577 29.6815 406.681 29.7851Z" fill="white"/>
<path d="M118.575 51.9947C113.445 51.3039 109.177 47.379 107.248 41.5786C106.151 38.2794 105.922 35.6855 106.475 32.8C107.683 26.4845 113.352 21.9787 121.203 21.0924C124.445 20.7266 124.368 20.7079 124.846 21.9789C125.075 22.5858 125.498 23.7089 125.788 24.4745L126.314 25.8666L124.151 26.11C118.958 26.6944 115.817 28.3136 114.447 31.1125C112.806 34.4667 114.129 40.3733 117.223 43.5057C118.34 44.637 118.698 44.8615 120.037 45.268C121.91 45.8371 123.546 45.7539 126.042 44.9626C128.024 44.3345 129.855 43.2693 131.595 41.7328L132.848 40.6259L132.988 41.3694C133.458 43.8742 132.452 46.7669 130.498 48.5327C127.832 50.9414 122.42 52.5126 118.575 51.9947Z" fill="white"/>
<path d="M374.965 44.6575C373.268 44.2359 371.828 43.8383 371.765 43.774C371.656 43.6615 378.447 15.2594 378.626 15.0795C378.727 14.979 385.261 16.5615 385.426 16.7264C385.484 16.7859 383.981 23.2533 382.082 31.0984C379.641 41.1882 378.546 45.3713 378.34 45.3931C378.181 45.4101 376.661 45.0791 374.965 44.6575Z" fill="white"/>
<path d="M142.466 30.7328C140.525 22.86 138.974 16.3823 139.019 16.3379C139.242 16.1142 159.659 11.2209 159.788 11.3601C160.071 11.6652 161.084 16.4956 160.901 16.6661C160.8 16.7593 157.716 17.5654 154.045 18.4575C149.181 19.6397 147.372 20.1605 147.372 20.3781C147.372 20.6677 148.646 25.9604 148.747 26.0896C148.774 26.1249 151.101 25.5903 153.917 24.9014C156.733 24.2125 159.218 23.616 159.44 23.5759C159.793 23.512 159.927 23.836 160.52 26.1853C160.892 27.6606 161.119 28.9154 161.024 28.9737C160.93 29.032 158.512 29.6504 155.652 30.348C152.791 31.0456 150.386 31.6562 150.307 31.7051C150.192 31.7757 151.473 37.6641 151.637 37.8196C151.661 37.8425 154.849 37.0815 158.722 36.1284C162.595 35.1753 165.79 34.4146 165.822 34.4381C165.854 34.4617 166.102 35.7209 166.372 37.2365C166.817 39.7318 166.831 40.0012 166.524 40.0893C165.494 40.3843 146.387 45.0469 146.208 45.0469C146.09 45.0469 144.406 38.6056 142.466 30.7328Z" fill="white"/>
<path d="M357.988 40.8273C357.357 40.7155 356.355 40.4018 355.763 40.1303C353.43 39.0624 352.39 37.3264 350.759 31.7769C349.542 27.6345 349.118 26.5049 348.22 25.0141L347.5 23.8182H348.932C352.612 23.8182 354.826 21.8904 354.826 18.6864C354.826 17.1812 354.109 16.1039 352.6 15.3421C351.802 14.9396 347.838 14.1229 347.645 14.3214C347.568 14.4004 346.553 19.6579 345.388 26.0049C344.224 32.3519 343.226 37.5898 343.171 37.6445C343.059 37.7568 337.038 36.6926 336.52 36.4689C336.225 36.3416 336.503 34.5862 338.842 21.8817C340.303 13.9384 341.541 7.40385 341.594 7.36051C341.799 7.19106 353.98 9.54702 355.626 10.0743C358.479 10.9889 360.648 12.6551 361.805 14.8233C362.228 15.6142 362.287 16.0256 362.287 18.1432C362.287 20.3186 362.232 20.6759 361.736 21.7163C360.535 24.2317 358.27 25.8555 355.606 26.1103L354.3 26.2353L354.971 26.7135C356 27.4476 357.447 29.8036 358.906 33.1203C360.736 37.2835 361.761 38.8334 363.329 39.8105L363.951 40.1977L363.123 40.5437C362.119 40.9631 359.553 41.1048 357.988 40.8273Z" fill="white"/>
<path d="M178.795 37.4064C178.687 37.0593 173.863 9.5218 173.801 8.90658C173.749 8.39338 173.762 8.38996 179.95 7.28514C187.132 6.00282 189.631 5.85582 191.97 6.57834C194.695 7.4202 196.4 9.08487 197.211 11.6969C198.382 15.4699 196.934 19.327 193.715 21.009C192.534 21.6262 192.278 21.9254 192.929 21.9288C193.82 21.9339 195.796 23.4381 198.867 26.4518C202.28 29.8018 203.636 30.8331 205.12 31.2088C205.611 31.3333 206.013 31.5139 206.013 31.6102C206.013 31.8531 204.401 32.9093 203.386 33.3317C201.904 33.9481 200.694 34.1824 198.972 34.1868C195.939 34.1952 194.741 33.2739 190.521 27.6955C188.112 24.5107 186.989 23.2757 185.52 22.1942C185.173 21.9389 185.004 21.727 185.144 21.7233C185.922 21.703 187.845 20.7287 188.798 19.8722C190.103 18.6983 190.461 17.9302 190.455 16.3112C190.438 13.4127 188.669 11.8316 185.749 12.1201C183.145 12.3774 181.842 12.6988 181.842 13.0835C181.842 13.2814 182.74 18.5105 183.838 24.7039C184.937 30.8972 185.835 36.058 185.835 36.1722C185.835 36.2864 184.913 36.5441 183.786 36.7448C182.659 36.9454 181.091 37.2306 180.303 37.3785C179.235 37.5789 178.85 37.5861 178.795 37.4064Z" fill="white"/>
<path d="M311.934 3.09588C311.678 3.0261 310.287 6.10967 305.564 17.219C302.241 25.0356 299.565 31.473 299.616 31.5243C299.782 31.6916 306.374 32.3875 306.509 32.2521C306.582 32.1798 307.102 30.9148 307.665 29.4409C308.359 27.6225 308.79 26.7645 309.004 26.7719C309.923 26.8036 317.625 27.7446 317.717 27.8362C317.776 27.8954 318.009 29.2005 318.235 30.7361C318.46 32.2718 318.696 33.5793 318.758 33.6416C318.82 33.704 320.269 33.9195 321.978 34.1208C325.923 34.5856 326.24 34.5972 326.24 34.2751C326.24 34.0036 321.478 5.34708 321.304 4.56984C321.213 4.16326 320.896 4.10016 316.734 3.65911C314.275 3.39844 312.115 3.14494 311.934 3.09588ZM315.477 9.73804C315.504 9.73759 315.511 9.81236 315.514 9.96203C315.514 10.1442 315.852 12.8126 316.257 15.8919C316.661 18.9712 316.992 21.5888 316.992 21.7087C316.992 21.8286 316.779 21.915 316.519 21.9008C315.709 21.8568 311.015 21.2746 310.951 21.2102C310.88 21.1392 315.02 10.4651 315.312 9.96531C315.402 9.81415 315.45 9.73849 315.477 9.73804Z" fill="white"/>
<path d="M218.765 31.6499C217.971 30.0814 207.017 3.82782 207.116 3.7293C207.178 3.66675 208.999 3.41762 211.161 3.17577C214.162 2.84018 215.129 2.7953 215.247 2.98611C215.333 3.12366 217.191 8.19914 219.378 14.2651C221.978 21.4772 223.403 25.166 223.497 24.9239C223.576 24.7204 224.36 19.4072 225.24 13.1169C226.12 6.82668 226.879 1.61577 226.928 1.5372C227.042 1.35084 234.147 0.595979 234.304 0.753366C234.425 0.874768 228.718 30.621 228.51 30.9495C228.45 31.0468 226.507 31.3301 224.195 31.5791C221.883 31.8281 219.781 32.0765 219.525 32.1311C219.174 32.2057 218.986 32.087 218.765 31.6499Z" fill="white"/>
<path d="M280.918 30.3304C278.938 29.5474 277.68 27.8694 277.396 25.6331C277.271 24.6483 277.283 24.6154 277.738 24.745C280.852 25.6328 281.385 25.6714 282.644 25.0998C284.179 24.4025 284.181 24.3921 284.67 11.8378C284.907 5.76869 285.111 0.793737 285.124 0.782303C285.24 0.67721 291.981 1.05172 292.099 1.16988C292.376 1.44652 291.39 23.5558 291.035 25.0335C290.423 27.5853 289.151 29.3229 287.299 30.1384C285.715 30.8359 282.445 30.9343 280.918 30.3304Z" fill="white"/>
<path d="M246.077 28.1796C246.012 27.2259 245.902 20.5578 245.831 13.3616L245.703 0.277612H251.046C253.985 0.277612 258.817 0.215248 261.783 0.138909L267.177 0V2.87121V5.74241H264.163C262.506 5.74241 259.29 5.80464 257.017 5.88081L252.885 6.0192V8.6657C252.885 10.1213 252.943 11.519 253.011 11.7717L253.133 12.2311L258.788 12.1065L264.441 11.982V14.8525V17.723H260.058C257.648 17.723 255.094 17.7837 254.383 17.858L253.092 17.9931V21.1499V24.3067L260.448 24.1663L267.804 24.0259V26.8312V29.6365L263.233 29.7745C260.719 29.8505 255.856 29.9127 252.427 29.9131L246.193 29.9134L246.075 28.1794L246.077 28.1796Z" fill="white"/>
</svg>

<svg xmlns="http://www.w3.org/2000/svg" width="521" height="200" fill="none"><path fill="#fff" fill-rule="evenodd" d="M38.048 131.066c27.27-13.189 35.451 30.943 17.411 42.356-16.258 10.246-33.197-7.964-26.694-31.095 2.046-7.254 4.72-9.029 9.282-11.21zm25.409-17.729c-11.223-11.717-31.912-11.337-45.6-1.394-23.495 17.145-24.334 63.205.63 80.959 17.36 12.326 31.49 6.531 46.91-1.787l.147 7.418 25.54-.258-.207-92.067-25.33.201c-.68 1.42-.367 6.544-.734 7.406-2.203 4.566 1.24 1.094-1.356-.478M129.409 198.329c1.888-15.928-8.444-76.444 16.677-69.749 19.666 5.276-.891 53.111 15.733 69.952l26.641-.508c-8.863-16.79-6.66-14.864-6.713-36.422 0-12.58-2.412-33.225 13.374-33.225 25.121 0-.471 53.465 20.348 70.103l26.799-.258c-17.306-17.754-2.78-47.885-10.437-73.806-2.883-9.739-11.537-18.413-24.176-19.631-17.411-1.675-21.555 3.906-31.047 11.515-6.188-4.565-9.073-10.804-22.341-11.565-12.115-.712-20.365 3.02-25.977 9.209l-.207-6.303c-.118-.659-.305-.923-.618-1.379l-24.592.35.631 91.965 25.906-.2zM284.273 131.317c27.585-14.559 34.874 33.682 16.152 42.813-13.898 6.746-23.39-3.958-26.169-13.646-2.833-9.79-1.101-23.283 10.017-29.167m-10.93 61.009c12.314 9.503 35.998 9.855 48.27-1.254 25.645-23.333 20.663-65.081-3.252-80.603-18.25-11.82-31.204-4.261-44.105 3.247l-.208-40.175-26.851.456.681 124.582 24.792.144c.683-6.433.009.057.001.085z" clip-rule="evenodd"/><path fill="#fff" fill-rule="evenodd" d="M372.378 142.732c4.143-22.218 28.687-21.811 31.834.058zm54.332 26.124c-17.568 6.138-47.462 18.008-54.384-6.898l58.685-1.065c1.154-26.225-6.976-46.261-26.118-53.769-50.503-19.783-81.55 51.69-44.105 82.074 15.733 12.783 46.151 15.219 62.618 1.725 2.623-5.225 3.147-14.357 3.252-22.067zM520.218 106.311l-28.32.507-18.197 59.704-17.622-60.262-28.005.058c.891 7.862 27.586 85.421 31.571 92.168l29.474.143 31.152-92.269z" clip-rule="evenodd"/><path fill="#fff" d="M404.232 22.496q-.032 0-.039.006c-.681.706-17.193 25.376-17.063 25.494.092.085 1.445.546 3.005 1.025l3.179.976c.252.078.738-.527 1.864-2.32.838-1.335 1.592-2.47 1.676-2.521.14-.086 8.551 2.472 8.716 2.65.041.043-.016 1.396-.111 3.008-.1 1.61-.161 2.947-.134 2.97.027.02 1.561.519 3.411 1.105 1.849.586 3.471 1.07 3.603 1.076.299.014.394-2.06.837-18.241.187-6.842.255-12.339.154-12.435-.315-.301-8.447-2.787-9.098-2.793m2.449 7.29c.048.048-.074 2.721-.273 5.94s-.418 5.913-.488 5.986c-.166.175-5.691-1.552-5.694-1.78 0-.262 6.351-10.25 6.455-10.147M118.575 51.995c-5.13-.691-9.398-4.616-11.327-10.416-1.097-3.3-1.326-5.894-.773-8.779 1.208-6.315 6.877-10.821 14.728-11.708 3.242-.365 3.165-.384 3.643.887l.942 2.496.526 1.392-2.163.243c-5.193.584-8.334 2.204-9.704 5.003-1.641 3.354-.318 9.26 2.776 12.393 1.117 1.131 1.475 1.355 2.814 1.762 1.873.57 3.509.486 6.005-.305 1.982-.629 3.813-1.694 5.553-3.23l1.253-1.107.14.743c.47 2.505-.536 5.398-2.49 7.164-2.666 2.408-8.078 3.98-11.923 3.462M374.965 44.658c-1.697-.422-3.137-.82-3.2-.884-.109-.113 6.682-28.515 6.861-28.694.101-.101 6.635 1.481 6.8 1.646.058.06-1.445 6.527-3.344 14.372-2.441 10.09-3.536 14.273-3.742 14.295-.159.017-1.679-.314-3.375-.736M142.466 30.733c-1.941-7.873-3.492-14.35-3.447-14.395.223-.224 20.64-5.117 20.769-4.978.283.305 1.296 5.136 1.113 5.306-.101.093-3.185.9-6.856 1.791-4.864 1.183-6.673 1.703-6.673 1.921 0 .29 1.274 5.582 1.375 5.712.027.035 2.354-.5 5.17-1.189s5.301-1.285 5.523-1.325c.353-.064.487.26 1.08 2.61.372 1.475.599 2.73.504 2.788s-2.512.676-5.372 1.374c-2.861.698-5.266 1.308-5.345 1.357-.115.07 1.166 5.96 1.33 6.115.024.023 3.212-.739 7.085-1.692s7.068-1.713 7.1-1.69.28 1.283.55 2.798c.445 2.496.459 2.765.152 2.853-1.03.295-20.137 4.958-20.316 4.958-.118 0-1.802-6.441-3.742-14.314M357.988 40.827a11 11 0 0 1-2.225-.697c-2.333-1.068-3.373-2.804-5.004-8.353-1.217-4.143-1.641-5.272-2.539-6.763l-.72-1.196h1.432c3.68 0 5.894-1.928 5.894-5.132 0-1.505-.717-2.582-2.226-3.344-.798-.402-4.762-1.22-4.955-1.02-.077.078-1.092 5.336-2.257 11.683-1.164 6.347-2.162 11.585-2.217 11.64-.112.112-6.133-.952-6.651-1.176-.295-.127-.017-1.883 2.322-14.587 1.461-7.944 2.699-14.478 2.752-14.521.205-.17 12.386 2.186 14.032 2.713 2.853.915 5.022 2.581 6.179 4.75.423.79.482 1.202.482 3.32 0 2.175-.055 2.532-.551 3.572-1.201 2.516-3.466 4.14-6.13 4.394l-1.306.125.671.479c1.029.734 2.476 3.09 3.935 6.406 1.83 4.163 2.855 5.713 4.423 6.69l.622.388-.828.346c-1.004.42-3.57.56-5.135.283M178.795 37.406c-.108-.347-4.932-27.884-4.994-28.5-.052-.513-.039-.516 6.149-1.62 7.182-1.283 9.681-1.43 12.02-.708 2.725.842 4.43 2.507 5.241 5.119 1.171 3.773-.277 7.63-3.496 9.312-1.181.617-1.437.916-.786.92.891.005 2.867 1.51 5.938 4.523 3.413 3.35 4.769 4.381 6.253 4.757.491.124.893.305.893.401 0 .243-1.612 1.3-2.627 1.722-1.482.616-2.692.85-4.414.855-3.033.008-4.231-.913-8.451-6.491-2.409-3.185-3.532-4.42-5.001-5.502-.347-.255-.516-.467-.376-.47.778-.021 2.701-.995 3.654-1.852 1.305-1.174 1.663-1.942 1.657-3.56-.017-2.9-1.786-4.48-4.706-4.192q-3.907.386-3.907.964c0 .197.898 5.427 1.996 11.62 1.099 6.193 1.997 11.354 1.997 11.468s-.922.372-2.049.573-2.695.486-3.483.634c-1.068.2-1.453.207-1.508.027M311.934 3.096c-.256-.07-1.647 3.014-6.37 14.123-3.323 7.817-5.999 14.254-5.948 14.305.166.168 6.758.864 6.893.728.073-.072.593-1.337 1.156-2.811.694-1.819 1.125-2.676 1.339-2.67.919.033 8.621.974 8.713 1.065.059.06.292 1.365.518 2.9.225 1.536.461 2.843.523 2.906.062.062 1.511.277 3.22.479 3.945.465 4.262.476 4.262.154 0-.271-4.762-28.928-4.936-29.705-.091-.407-.408-.47-4.57-.91-2.459-.262-4.619-.515-4.8-.564m3.543 6.642c.027 0 .034.074.037.224 0 .182.338 2.85.743 5.93s.735 5.697.735 5.817-.213.206-.473.192c-.81-.044-5.504-.626-5.568-.69-.071-.072 4.069-10.746 4.361-11.246.09-.15.138-.227.165-.227M218.765 31.65c-.794-1.569-11.748-27.822-11.649-27.92.062-.063 1.883-.312 4.045-.554 3.001-.336 3.968-.38 4.086-.19.086.138 1.944 5.213 4.131 11.28 2.6 7.211 4.025 10.9 4.119 10.658.079-.204.863-5.517 1.743-11.807s1.639-11.501 1.688-11.58c.114-.186 7.219-.941 7.376-.784.121.122-5.586 29.868-5.794 30.197-.06.097-2.003.38-4.315.63-2.312.248-4.414.497-4.67.551-.351.075-.539-.044-.76-.481M280.918 30.33c-1.98-.783-3.238-2.46-3.522-4.697-.125-.985-.113-1.018.342-.888 3.114.888 3.647.926 4.906.355 1.535-.698 1.537-.708 2.026-13.262.237-6.07.441-11.044.454-11.056.116-.105 6.857.27 6.975.388.277.277-.709 22.386-1.064 23.864-.612 2.551-1.884 4.289-3.736 5.104-1.584.698-4.854.796-6.381.192M246.077 28.18c-.065-.954-.175-7.622-.246-14.818L245.703.278h5.343c2.939 0 7.771-.063 10.737-.14L267.177 0v5.742h-3.014c-1.657 0-4.873.063-7.146.139l-4.132.138v2.647c0 1.455.058 2.853.126 3.106l.122.46 5.655-.125 5.653-.125v5.741h-4.383c-2.41 0-4.964.06-5.675.135l-1.291.135v6.314l7.356-.14 7.356-.141v5.611l-4.571.137c-2.514.076-7.377.139-10.806.14h-6.234l-.118-1.735z"/></svg>
